status/16/locked.svg

<?xml version="1.0" encoding="UTF-8" standalone="no"?>
<svg
   xmlns:dc="http://purl.org/dc/elements/1.1/"
   xmlns:cc="http://creativecommons.org/ns#"
   xmlns:rdf="http://www.w3.org/1999/02/22-rdf-syntax-ns#"
   xmlns:svg="http://www.w3.org/2000/svg"
   xmlns="http://www.w3.org/2000/svg"
   xmlns:xlink="http://www.w3.org/1999/xlink"
   version="1.1"
   width="16"
   height="16"
   id="svg4099">
  <defs
     id="defs4101">
    <linearGradient
       x1="24"
       y1="29"
       x2="24"
       y2="14"
       id="linearGradient4144"
       xlink:href="#linearGradient5475-8"
       gradientUnits="userSpaceOnUse"
       gradientTransform="matrix(0.66666666,0,0,0.46666666,-3.1666666,0.46666564)" />
    <linearGradient
       id="linearGradient5475-8">
      <stop
         id="stop5477-0"
         style="stop-color:#d88f22;stop-opacity:1"
         offset="0" />
      <stop
         id="stop5479-4"
         style="stop-color:#d88f22;stop-opacity:0"
         offset="1" />
    </linearGradient>
    <linearGradient
       x1="24"
       y1="29"
       x2="24"
       y2="14"
       id="linearGradient3976"
       xlink:href="#linearGradient5475-8"
       gradientUnits="userSpaceOnUse"
       gradientTransform="matrix(0.66666666,0,0,0.46666666,-12.166666,0.46666564)" />
    <linearGradient
       id="linearGradient4043">
      <stop
         id="stop4045"
         style="stop-color:#d88f22;stop-opacity:1"
         offset="0" />
      <stop
         id="stop4047"
         style="stop-color:#d88f22;stop-opacity:0"
         offset="1" />
    </linearGradient>
    <linearGradient
       x1="9"
       y1="29"
       x2="9"
       y2="14"
       id="linearGradient3065"
       xlink:href="#linearGradient3966-0-4"
       gradientUnits="userSpaceOnUse"
       gradientTransform="matrix(0.66666664,0,0,0.46667556,-1.1666667,-20.533589)" />
    <linearGradient
       id="linearGradient3966-0-4">
      <stop
         id="stop3968-8-0"
         style="stop-color:#ffffff;stop-opacity:1"
         offset="0" />
      <stop
         id="stop3970-7-4"
         style="stop-color:#ffffff;stop-opacity:0"
         offset="1" />
    </linearGradient>
    <linearGradient
       x1="9"
       y1="29"
       x2="9"
       y2="14"
       id="linearGradient3062"
       xlink:href="#linearGradient3966-0-4-2"
       gradientUnits="userSpaceOnUse"
       gradientTransform="matrix(0.66666664,0,0,0.46667556,5.8333347,-20.533589)" />
    <linearGradient
       id="linearGradient3966-0-4-2">
      <stop
         id="stop3968-8-0-1"
         style="stop-color:#ffffff;stop-opacity:1"
         offset="0" />
      <stop
         id="stop3970-7-4-2"
         style="stop-color:#ffffff;stop-opacity:0"
         offset="1" />
    </linearGradient>
    <linearGradient
       x1="8.6428576"
       y1="27.5"
       x2="23.299999"
       y2="27.5"
       id="linearGradient4158"
       xlink:href="#linearGradient3865-4-8"
       gradientUnits="userSpaceOnUse"
       gradientTransform="matrix(-0.93357748,0,0,1,23.379997,-15)" />
    <linearGradient
       id="linearGradient3865-4-8">
      <stop
         id="stop3867-110-9"
         style="stop-color:#000000;stop-opacity:1"
         offset="0" />
      <stop
         id="stop3869-96-3"
         style="stop-color:#000000;stop-opacity:0"
         offset="1" />
    </linearGradient>
    <linearGradient
       x1="8.6428576"
       y1="27.5"
       x2="23.299999"
       y2="27.5"
       id="linearGradient3951"
       xlink:href="#linearGradient6057-35-7"
       gradientUnits="userSpaceOnUse"
       gradientTransform="matrix(-0.93357745,0,0,1,23.379997,-22)" />
    <linearGradient
       id="linearGradient6057-35-7">
      <stop
         id="stop6059-0-7"
         style="stop-color:#ffffff;stop-opacity:1"
         offset="0" />
      <stop
         id="stop6061-4-9"
         style="stop-color:#ffffff;stop-opacity:0"
         offset="1" />
    </linearGradient>
    <linearGradient
       x1="10.314445"
       y1="7.0003052"
       x2="10.314445"
       y2="16.000305"
       id="linearGradient3963"
       xlink:href="#linearGradient3957"
       gradientUnits="userSpaceOnUse"
       gradientTransform="translate(0,-1.0003052)" />
    <linearGradient
       id="linearGradient3957">
      <stop
         id="stop3959"
         style="stop-color:#b19c7d;stop-opacity:1"
         offset="0" />
      <stop
         id="stop3961"
         style="stop-color:#a08358;stop-opacity:1"
         offset="1" />
    </linearGradient>
    <linearGradient
       x1="21.771429"
       y1="14.871428"
       x2="21.771429"
       y2="27.924538"
       id="linearGradient3059"
       xlink:href="#linearGradient5443"
       gradientUnits="userSpaceOnUse"
       gradientTransform="matrix(0.47368427,0,0,0.42857142,0.4210521,1.2857141)" />
    <linearGradient
       id="linearGradient5443">
      <stop
         id="stop5445"
         style="stop-color:#ffffff;stop-opacity:1"
         offset="0" />
      <stop
         id="stop5447"
         style="stop-color:#ffffff;stop-opacity:0.23529412"
         offset="0.03252051" />
      <stop
         id="stop5449"
         style="stop-color:#ffffff;stop-opacity:0.15686275"
         offset="0.98558509" />
      <stop
         id="stop5451"
         style="stop-color:#ffffff;stop-opacity:0.39215687"
         offset="1" />
    </linearGradient>
    <radialGradient
       cx="16.823883"
       cy="11.368058"
       r="10.5"
       fx="16.777113"
       fy="11.597148"
       id="radialGradient3074"
       xlink:href="#linearGradient5409"
       gradientUnits="userSpaceOnUse"
       gradientTransform="matrix(0,0.80952382,-1.1390521,0,20.94881,-6.3693335)" />
    <linearGradient
       id="linearGradient5409">
      <stop
         id="stop5411"
         style="stop-color:#f2e0c4;stop-opacity:1"
         offset="0" />
      <stop
         id="stop5559"
         style="stop-color:#e5af5b;stop-opacity:1"
         offset="0.76470584" />
      <stop
         id="stop5413"
         style="stop-color:#af6900;stop-opacity:1"
         offset="1" />
    </linearGradient>
    <linearGradient
       x1="10.650842"
       y1="2.9136841"
       x2="27.192274"
       y2="17.470011"
       id="linearGradient3996"
       xlink:href="#linearGradient10591-0"
       gradientUnits="userSpaceOnUse"
       gradientTransform="matrix(0.2606375,0,0,0.3148868,1.7267638,-0.04783173)" />
    <linearGradient
       id="linearGradient10591-0">
      <stop
         id="stop10593-1"
         style="stop-color:#cad0c6;stop-opacity:1"
         offset="0" />
      <stop
         id="stop10599-3"
         style="stop-color:#eaece9;stop-opacity:1"
         offset="0.5" />
      <stop
         id="stop10595-3"
         style="stop-color:#c5cbc0;stop-opacity:1"
         offset="1" />
    </linearGradient>
    <linearGradient
       x1="10.650842"
       y1="2.9136841"
       x2="27.192274"
       y2="17.470011"
       id="linearGradient4097"
       xlink:href="#linearGradient10591-0"
       gradientUnits="userSpaceOnUse"
       gradientTransform="matrix(0.2606375,0,0,0.3148868,1.7267638,-0.0481369)" />
  </defs>
  <metadata
     id="metadata4104">
    <rdf:RDF>
      <cc:Work
         rdf:about="">
        <dc:format>image/svg+xml</dc:format>
        <dc:type
           rdf:resource="http://purl.org/dc/dcmitype/StillImage" />
        <dc:title />
      </cc:Work>
    </rdf:RDF>
  </metadata>
  <g
     id="layer1">
    <path
       d="m 4.4999998,8.4996391 0,-3.3753574 c 0,-2.4782011 1.3702785,-3.6555186 3.4872865,-3.62457 2.1285247,0.030949 3.5133857,1.1172142 3.5133857,3.62457 l 0,3.3753574 -1.431082,0 0,-2.7455829 c 0,-0.6297745 0.148159,-2.6676754 -2.0673917,-2.6676754 -2.1972832,0 -2.0371829,2.0504603 -2.0286629,2.6651649 l 0,2.7480934 z"
       id="path2086-4"
       style="opacity:0.4;fill:url(#linearGradient4097);fill-opacity:1;fill-rule:evenodd;stroke:none" />
    <path
       d="M 5.2,6 C 5.2,6 4.6101697,2.5 8,2.5 11.38983,2.5 10.8,6 10.8,6"
       id="path4161"
       style="opacity:0.6;fill:none;stroke:#ffffff;stroke-width:1px;stroke-linecap:round;stroke-linejoin:miter;stroke-opacity:1" />
    <path
       d="m 4.4999998,8.4996395 0,-3.3753574 c 0,-2.4782011 1.3702785,-3.6555186 3.4872865,-3.62457 2.1285247,0.030949 3.5133857,1.1172142 3.5133857,3.62457 l 0,3.3753574 -2.000672,0 0,-2.7455829 C 9.5,5.1242821 9.6514618,3.5 8.0021983,3.5 6.3529348,3.5 6.49148,5.1368415 6.5,5.7515461 l 0,2.7480934 z"
       id="path2086-3"
       style="opacity:0.4;fill:none;stroke:#000000;stroke-width:0.99999952;stroke-linecap:square;stroke-linejoin:miter;stroke-miterlimit:4;stroke-opacity:1;stroke-dasharray:none" />
    <rect
       width="11"
       height="8"
       rx="1"
       ry="1"
       x="2.5"
       y="6.4999995"
       id="rect3186-2"
       style="color:#000000;fill:url(#radialGradient3074);fill-opacity:1;fill-rule:nonzero;stroke:none;stroke-width:1px;marker:none;visibility:visible;display:inline;overflow:visible;enable-background:accumulate" />
    <rect
       width="9"
       height="6"
       x="3.5"
       y="7.500001"
       id="rect3186-3"
       style="opacity:0.5;color:#000000;fill:none;stroke:url(#linearGradient3059);stroke-width:1px;stroke-linejoin:round;stroke-opacity:1;marker:none;visibility:visible;display:inline;overflow:visible;enable-background:accumulate" />
    <rect
       width="11"
       height="8"
       rx="1"
       ry="1"
       x="2.5"
       y="6.5"
       id="rect3186"
       style="color:#000000;fill:none;stroke:url(#linearGradient3963);stroke-width:0.99999994px;stroke-opacity:1;marker:none;visibility:visible;display:inline;overflow:visible;enable-background:accumulate" />
    <path
       d="m 3.5,7.5 9,-3.79e-4 m -9,2.0003788 9,-3.79e-4 M 3.5,11.5 l 9,-3.79e-4"
       id="path3863-3-5"
       style="opacity:0.2;fill:none;stroke:url(#linearGradient3951);stroke-width:1;stroke-linecap:square;stroke-linejoin:miter;stroke-miterlimit:4;stroke-opacity:1;stroke-dasharray:none" />
    <path
       d="m 3.5,12.5 9,0 m -9,-6 9,0 m -9,2 9,0 m -9,2 9,0"
       id="path4156"
       style="opacity:0.05;fill:none;stroke:url(#linearGradient4158);stroke-width:1px;stroke-linecap:square;stroke-linejoin:miter;stroke-opacity:1" />
    <rect
       width="1"
       height="7.000133"
       rx="2"
       ry="1"
       x="11"
       y="-14.000134"
       transform="scale(1,-1)"
       id="rect5453-4-4"
       style="opacity:0.5;color:#000000;fill:url(#linearGradient3062);fill-opacity:1;fill-rule:nonzero;stroke:none;stroke-width:1px;marker:none;visibility:visible;display:inline;overflow:visible;enable-background:accumulate" />
    <rect
       width="1"
       height="7.000133"
       rx="2"
       ry="1"
       x="4"
       y="-14.000134"
       transform="scale(1,-1)"
       id="rect5453-4"
       style="opacity:0.5;color:#000000;fill:url(#linearGradient3065);fill-opacity:1;fill-rule:nonzero;stroke:none;stroke-width:1px;marker:none;visibility:visible;display:inline;overflow:visible;enable-background:accumulate" />
    <rect
       width="1"
       height="7"
       rx="1.6"
       ry="0.49999997"
       x="3"
       y="7"
       id="rect3333"
       style="opacity:0.5;color:#000000;fill:url(#linearGradient3976);fill-opacity:1;fill-rule:nonzero;stroke:none;stroke-width:1px;marker:none;visibility:visible;display:inline;overflow:visible;enable-background:accumulate" />
    <rect
       width="1"
       height="7"
       rx="1.6"
       ry="0.49999997"
       x="12"
       y="7"
       id="rect5453-6"
       style="opacity:0.5;color:#000000;fill:url(#linearGradient4144);fill-opacity:1;fill-rule:nonzero;stroke:none;stroke-width:1px;marker:none;visibility:visible;display:inline;overflow:visible;enable-background:accumulate" />
  </g>
</svg>

<svg xmlns="http://www.w3.org/2000/svg" xmlns:xlink="http://www.w3.org/1999/xlink" viewBox="0 0 16 16"><defs><linearGradient x1="24" y1="29" x2="24" y2="14" id="s" xlink:href="#a" gradientUnits="userSpaceOnUse" gradientTransform="matrix(.66667 0 0 .46667 -3.167 .467)"/><linearGradient id="a"><stop offset="0" stop-color="#d88f22"/><stop offset="1" stop-color="#d88f22" stop-opacity="0"/></linearGradient><linearGradient x1="24" y1="29" x2="24" y2="14" id="r" xlink:href="#a" gradientUnits="userSpaceOnUse" gradientTransform="matrix(.66667 0 0 .46667 -12.167 .467)"/><linearGradient x1="9" y1="29" x2="9" y2="14" id="q" xlink:href="#b" gradientUnits="userSpaceOnUse" gradientTransform="matrix(.66667 0 0 .46668 -1.167 -20.534)"/><linearGradient id="b"><stop offset="0" stop-color="#fff"/><stop offset="1" stop-color="#fff" stop-opacity="0"/></linearGradient><linearGradient x1="9" y1="29" x2="9" y2="14" id="p" xlink:href="#c" gradientUnits="userSpaceOnUse" gradientTransform="matrix(.66667 0 0 .46668 5.833 -20.534)"/><linearGradient id="c"><stop offset="0" stop-color="#fff"/><stop offset="1" stop-color="#fff" stop-opacity="0"/></linearGradient><linearGradient x1="8.643" y1="27.5" x2="23.3" y2="27.5" id="o" xlink:href="#d" gradientUnits="userSpaceOnUse" gradientTransform="matrix(-.93358 0 0 1 23.38 -15)"/><linearGradient id="d"><stop offset="0"/><stop offset="1" stop-opacity="0"/></linearGradient><linearGradient x1="8.643" y1="27.5" x2="23.3" y2="27.5" id="n" xlink:href="#e" gradientUnits="userSpaceOnUse" gradientTransform="matrix(-.93358 0 0 1 23.38 -22)"/><linearGradient id="e"><stop offset="0" stop-color="#fff"/><stop offset="1" stop-color="#fff" stop-opacity="0"/></linearGradient><linearGradient x1="10.314" y1="7" x2="10.314" y2="16" id="m" xlink:href="#f" gradientUnits="userSpaceOnUse" gradientTransform="translate(0 -1)"/><linearGradient id="f"><stop offset="0" stop-color="#b19c7d"/><stop offset="1" stop-color="#a08358"/></linearGradient><linearGradient x1="21.771" y1="14.871" x2="21.771" y2="27.925" id="l" xlink:href="#g" gradientUnits="userSpaceOnUse" gradientTransform="matrix(.47368 0 0 .42857 .42 1.286)"/><linearGradient id="g"><stop offset="0" stop-color="#fff"/><stop offset=".033" stop-color="#fff" stop-opacity=".235"/><stop offset=".986" stop-color="#fff" stop-opacity=".157"/><stop offset="1" stop-color="#fff" stop-opacity=".392"/></linearGradient><radialGradient cx="16.824" cy="11.368" r="10.5" fx="16.777" fy="11.597" id="k" xlink:href="#h" gradientUnits="userSpaceOnUse" gradientTransform="matrix(0 .80952 -1.13905 0 20.95 -6.37)"/><linearGradient id="h"><stop offset="0" stop-color="#f2e0c4"/><stop offset=".765" stop-color="#e5af5b"/><stop offset="1" stop-color="#af6900"/></linearGradient><linearGradient id="i"><stop offset="0" stop-color="#cad0c6"/><stop offset=".5" stop-color="#eaece9"/><stop offset="1" stop-color="#c5cbc0"/></linearGradient><linearGradient x1="10.651" y1="2.914" x2="27.192" y2="17.47" id="j" xlink:href="#i" gradientUnits="userSpaceOnUse" gradientTransform="matrix(.26064 0 0 .3149 1.727 -.048)"/></defs><path d="M4.5 8.5V5.124C4.5 2.646 5.87 1.47 7.987 1.5c2.13.03 3.514 1.117 3.514 3.624V8.5h-1.43V5.754c0-.63.15-2.668-2.066-2.668-2.197 0-2.037 2.05-2.028 2.666V8.5z" opacity=".4" fill="url(#j)" fill-rule="evenodd"/><path d="M5.2 6S4.61 2.5 8 2.5c3.39 0 2.8 3.5 2.8 3.5" opacity=".6" fill="none" stroke="#fff" stroke-linecap="round"/><path d="M4.5 8.5V5.124C4.5 2.646 5.87 1.47 7.987 1.5c2.13.03 3.514 1.117 3.514 3.624V8.5h-2V5.754c0-.63.15-2.254-1.496-2.254-1.65 0-1.51 1.637-1.502 2.252V8.5z" opacity=".4" fill="none" stroke="#000" stroke-linecap="square"/><rect width="11" height="8" rx="1" ry="1" x="2.5" y="6.5" color="#000" fill="url(#k)" overflow="visible"/><path opacity=".5" color="#000" fill="none" stroke="url(#l)" stroke-linejoin="round" overflow="visible" d="M3.5 7.5h9v6h-9z"/><rect width="11" height="8" rx="1" ry="1" x="2.5" y="6.5" color="#000" fill="none" stroke="url(#m)" overflow="visible"/><path d="M3.5 7.5h9m-9 2h9m-9 2h9" opacity=".2" fill="none" stroke="url(#n)" stroke-linecap="square"/><path d="M3.5 12.5h9m-9-6h9m-9 2h9m-9 2h9" opacity=".05" fill="none" stroke="url(#o)" stroke-linecap="square"/><rect width="1" height="7" rx="2" ry="1" x="11" y="-14" transform="scale(1 -1)" opacity=".5" color="#000" fill="url(#p)" overflow="visible"/><rect width="1" height="7" rx="2" ry="1" x="4" y="-14" transform="scale(1 -1)" opacity=".5" color="#000" fill="url(#q)" overflow="visible"/><rect width="1" height="7" rx="1.6" ry=".5" x="3" y="7" opacity=".5" color="#000" fill="url(#r)" overflow="visible"/><rect width="1" height="7" rx="1.6" ry=".5" x="12" y="7" opacity=".5" color="#000" fill="url(#s)" overflow="visible"/></svg>
